images/cart.svg

<svg width="51" height="51" viewBox="0 0 51 51" fill="none" xmlns="http://www.w3.org/2000/svg">
<circle cx="25.5" cy="25.5" r="25.5" fill="#333333" fill-opacity="0.4"/>
<path d="M10.2211 13.0001C9.54947 13.0001 9 13.5675 9 14.261C9 14.9545 9.54947 15.522 10.2211 15.522H12.9306L16.1358 28.762C16.4069 29.8843 17.3813 30.6534 18.501 30.6534H32.5053C33.6067 30.6534 34.542 29.8994 34.8326 28.8011L38 16.7829H17.5474L18.1579 19.3048H34.8326L32.5053 28.1315H18.501L15.2957 14.8915C15.1637 14.3484 14.8589 13.8668 14.4303 13.5239C14.0017 13.1809 13.474 12.9965 12.9318 13.0001H10.2211ZM30.9789 30.6534C28.9703 30.6534 27.3158 32.362 27.3158 34.4363C27.3158 36.5106 28.9703 38.2192 30.9789 38.2192C32.9876 38.2192 34.6421 36.5106 34.6421 34.4363C34.6421 32.362 32.9876 30.6534 30.9789 30.6534ZM19.9895 30.6534C17.9808 30.6534 16.3263 32.362 16.3263 34.4363C16.3263 36.5106 17.9808 38.2192 19.9895 38.2192C21.9981 38.2192 23.6526 36.5106 23.6526 34.4363C23.6526 32.362 21.9981 30.6534 19.9895 30.6534ZM19.9895 33.1754C20.6769 33.1754 21.2105 33.7276 21.2105 34.4363C21.2105 35.1462 20.6757 35.6973 19.9895 35.6973C19.302 35.6973 18.7684 35.145 18.7684 34.4363C18.7684 33.7264 19.3032 33.1754 19.9895 33.1754ZM30.9789 33.1754C31.6664 33.1754 32.2 33.7276 32.2 34.4363C32.2 35.1462 31.6652 35.6973 30.9789 35.6973C30.2915 35.6973 29.7579 35.145 29.7579 34.4363C29.7579 33.7264 30.2927 33.1754 30.9789 33.1754Z" fill="white"/>
</svg>

<svg xmlns="http://www.w3.org/2000/svg" width="51" height="51" fill="none"><circle cx="25.5" cy="25.5" r="25.5" fill="#333" fill-opacity=".4"/><path fill="#fff" d="M10.221 13C9.55 13 9 13.568 9 14.261c0 .694.55 1.261 1.221 1.261h2.71l3.205 13.24c.27 1.122 1.245 1.891 2.365 1.891h14.004c1.102 0 2.037-.754 2.328-1.852L38 16.783H17.547l.61 2.522h16.676l-2.328 8.826H18.501l-3.205-13.24a2.508 2.508 0 0 0-.866-1.367A2.372 2.372 0 0 0 12.932 13h-2.71ZM30.98 30.653c-2.009 0-3.663 1.709-3.663 3.783 0 2.075 1.654 3.783 3.663 3.783s3.663-1.708 3.663-3.783c0-2.074-1.654-3.783-3.663-3.783Zm-10.99 0c-2.008 0-3.663 1.709-3.663 3.783 0 2.075 1.655 3.783 3.663 3.783 2.01 0 3.664-1.708 3.664-3.783 0-2.074-1.655-3.783-3.663-3.783Zm0 2.522c.688 0 1.221.553 1.221 1.261 0 .71-.534 1.261-1.22 1.261-.688 0-1.222-.552-1.222-1.26 0-.71.535-1.262 1.221-1.262Zm10.99 0c.687 0 1.221.553 1.221 1.261 0 .71-.535 1.261-1.221 1.261-.688 0-1.221-.552-1.221-1.26 0-.71.535-1.262 1.22-1.262Z"/></svg>
